!!!COM: Bach, Johann Sebastian
!!!OTL: Wo Gott zum Haus nicht gibt
!!!ONM: No. 157
!!!OCL: Erk
!!!YOE: Riemenschneider, Albert
!!!OPR: 371 Harmonized Chorales and 69 Chorale Melodies with Figured Bass
!!!OPT: Bach Chorale Harmonizations
**kern	**kern	**kern	**kern
! bass	! tenor	! alto	! soprano
*M4/4	*M4/4	*M4/4	*M4/4
*F:	*F:	*F:	*F:
8F	8A	4c	4f
8G	8B-	.	.
=1	=1	=1	=1
8A	8c	8f	4cc
8B-	8d	8g	.
4c	4e	8a	8cc
.	.	[8g	8b-
4F	4c	8g]	4a
.	.	[8f	.
4C	4c	8f]	4g
.	.	8e	.
=2	=2	=2	=2
4F	4c	8f	4a
.	.	8e	.
4G	4G	4d	4bn
4C;	4G;	4e;	4cc;
4E	4c	[4g	4cc
=3	=3	=3	=3
4F	[4c	8g]	4a
.	.	8f	.
8E	8c]	8g	4cc
8C	8e	[8a	.
8D	8f	8a]	4b-
8G	8d	16g	.
.	.	16f	.
8E	4c	[4g	4cc
8C	.	.	.
=4	=4	=4	=4
4F	4c	8g]	4a
.	.	[8f	.
4C	8c	8f]	4g
.	8B-	8e	.
4FF;	4A;	4c;	4f;
4F	4A	4f	4cc
=5	=5	=5	=5
8BB-	4B-	4f	4dd
8C	.	.	.
8D	8F	4f	4dd
8E	8G	.	.
8F	4A	4.c	4a
8G	.	.	.
8A	8f	.	4cc
8F#	8e-	[8a	.
=6	=6	=6	=6
8G	4d	8a]	4b-
8A	.	16g	.
.	.	16f#	.
8B-	4d	[4g	4b-
8c	.	.	.
4d;	4d;	8g]	4a;
.	.	8f#;	.
4D	4d	4a	4ffn
=7	=7	=7	=7
4A	4c	8a	4ee
.	.	8g	.
4B-	8d	8f	4dd
.	8e	8g	.
8F	4f	8a	4.cc
8E	.	8g	.
4D	4A	4f	.
.	.	.	8dd
=8	=8	=8	=8
4G	[4B-	[4f	8b-
.	.	.	8a
4C	8B-]	8f]	4g
.	16c	8e	.
.	16B-	.	.
4F;	4A;	4c;	4f;
==	==	==	==
*-	*-	*-	*-
!!!CDT: 1685/3//-1750/7/28
!!!OCY: Deutschland
!!!AGN: chorale
!!!AST: Baroque
!!!AIN: vox
!!!YOY: 1941
!!!PPP: New York; London
!!!PPR: G. Schirmer
!!!ENC: David Huron
!!!EED: David Huron
!!!YEN: United States of America
!!!YER: 1992
!!!YEC: Copyright 1992 David Huron
!!!YEM: Rights to all derivative electronic formats reserved.
!!!YER: March 20, 1996
!!!AMT: simple quadruple
!!!EEV: 1.1
